X: 43
T: Miss Rowan Davies Harmony
C: Phil Cunningham Harmony by John Chambers
M: 3/4
L: 1/8
K: G
d2c2 \
| "G"B6     | "D7"B3cd2 | "Em"e6-  | e2e2d2 \
| "C"c3ec2  | "G"B4G2   | "Am"E6   | "D7"d4c2 |
| "G"B4G2   | "D7"F3GA2 | "Em"B4c2 | d6 \
| "C"ce3-e2 | "D7"d4c2  | "G"B6-  | B2 :|
|: B2A2 \
| "C"G4G2    | "Am"c4c2 | "G"B6-    | "Bm"B2G2F2 \
| "Em"E3FG2- | "C"G2E4  | "B7"F6    | "G7"=F6 |
| "C"E2G2c2  | "D7"d4dc | "G"B2c2d2 | "Em"e4d2 \
| "Am"ce3-e2 | "D7"d4c2 | "G"B6-    | B2 :|
